X: 36
T: 250 To Vigo
R: reel
M: 4/4
K: Bminor
fBBA BdF(G|G)BdB Acec|fBBA BdF(G|G)ABd cBBg|
fBBA BdF(G|G)BdB Acec|fBBA BdF(G|G)Bfe defg|
affe dec(d|d)ecd ed (3)cBA|affe dec(d|d)faf feef|
affe dec(d|d)ecd ed (3)cBA|fBBA Bfc(d|1 d)fec dcBA:|2 d)fec dcBd||
cFFc dGGd|cFFe dBBd|cFFc dGGd|cfec dcBd|
cFFc dGGd|cFFe dBBd|cFFc dGGd|cfec defg||
affd caB(c|c)aBc dcBA|affd caB(c|c)aaf feef|
affd caB(c|c)aBc dcBA|fBBA Bfc(d|d)fec dcBA||

